X:1
T:Sechs geistliche Gesänge
T:Litanei auf das Fest aller Seelen
T:Ferdinand Hiller
T:Johann Georg Jacobi
T:Litanei auf das Fest aller Seelen
T:Nr. 4 aus Sechs geistliche Gesänge, Op. 71
T:CPDL - Creative Commons Attribution Non Commercial 3.0
T:CPDL - Creative Commons Attribution Non Commercial 3.0
T:CPDL - Creative Commons Attribution Non Commercial 3.0
T:CPDL - Creative Commons Attribution Non Commercial 3.0
T:CPDL - Creative Commons Attribution Non Commercial 3.0
T:CPDL - Creative Commons Attribution Non Commercial 3.0
T:CPDL - Creative Commons Attribution Non Commercial 3.0
T:CPDL - Creative Commons Attribution Non Commercial 3.0
C:Ferdinand Hiller
Z:Johann Georg Jacobi
Z:CPDL - Creative Commons Attribution Non Commercial 3.0
%%score [ 1 2 3 4 ]
L:1/8
Q:1/4=60
M:2/4
K:Eb
V:1 treble nm="Sopran"
V:2 treble nm="Alt"
V:3 treble-8 nm="Tenor"
V:4 bass nm="Bass"
V:1
"^Etwas langsam""^dolce" G3 G | G2 F2 | A3 G | G2 D2 |"^poco cresc." A3 A | A2 G2 | c3!>(! B | %7
w: Ruhn in|Frie- den|al- le|See- len,|ruhn in|Frie- den|al- le|
 B2 E2!>)! |!f! e3 d |!>(! d2 c!>)! z | z"^dolce" A2 G | (G3 F) | E2 z2 | G3 G |!<(! =AG AB!<)! | %15
w: See- len,|al- le|See- len,|ruhn in|Frie- *|den,|die voll-|bracht ein ban- ges|
!>(! d2 c!>)! z | z4 | B3 B |!<(! cB cd!<)! |!>(! f2 e!>)! z | z4 |!p! d3 d | c2 B2 | d3 c | %24
w: Quä- len,||die voll-|bracht ein ban- ges|Quä- len,||die voll-|en- det|sü- ßen|
 =B2 c>c |!<(! c2 ^c>c | (d2!<)! f)!>(!e | c3 d | B4!>)! |!pp! _G>G G z | z _G _c>B | B4 | %32
w: Traum, die voll-|en- det, voll-|en- * det|sü- ßen|Traum,|le- bens- satt,|ge- bo- ren|kaum,|
 E>E E z | z E _G>F | F2 F>F |"^cresc." _G2 =G>G | A2 =A2 | (B2 e>)f |!f!!>(! e4 | d2!>)! z2 | %40
w: le- bens- satt,|ge- bo- ren|kaum aus der|Welt, aus der|Welt hin-|ü- * ber|schie-|den.|
!f! e3!>(! d | d2 c!>)! z | z"^dolce" A2 G | (G3 F) | E2 z2 | z4 | z4 | c3 c |!<(! c=B cd!<)! | %49
w: Al- le|See- len,|ruhn in|Frie- *|den,|||die voll-|bracht ein ban- ges|
!>(! d2 G!>)! z | z4 | e3 e |!<(! ed ef!<)! |!>(! f2 B!>)! z |"^dolce" e3 e |!>(! d2 c2!>)! | %56
w: Quä- len,||die voll-|bracht ein ban- ges|Quä- len,|die voll-|en- det|
!p! G3 F | =E2 F>F |!<(! F2 ^F>F | (G2!<)! B)!>(!A | F3 _G | F4!>)! |!pp! _G>G G z | z _G _c>B | %64
w: sü- ßen|Traum, die voll-|en- det, voll-|en- * det|sü- ßen|Traum,|le- bens- satt,|ge- bo- ren|
 B4 | E>E E z | z E _G>F | F2 F>F |"^cresc." _G2 =G>G | A2 =A2 | (B2 e>)f |!f!!>(! e4 | d2!>)! z2 | %73
w: kaum,|le- bens- satt,|ge- bo- ren|kaum aus der|Welt, aus der|Welt hin-|ü- * ber|schie-|den.|
"^dolce" G3 G | G2 F2 | A3 G | G2 D2 | A3 A | A2 G2 | c3 B | B2 E2 | E3 E | e2 cA | (F3 G) | G4 | %85
w: Al- le|See- len|ruhn in|Frie- den,|al- le|See- len|ruhn in|Frie- den,|ruhn in|Frie- den, in|Frie- *|den,|
!f! e3 d |!>(! d2 c!>)! z | z"^dolce" A2 G | (G3 F) | E2 z!<(! G | G4!<)! |!>(! E2!>)! z!<(! A | %92
w: al- le|See- len|ruhn in|Frie- *|den, in|Frie-|den, in|
 A4!<)! |!>(! G2!>)! z!<(! c | c4!<)! |!>(! F2!>)! z!pp! G | !fermata!F4 | !fermata!E4 |] %98
w: Frie-|den, in|Frie-|den, in|Frie-|den.|
V:2
"^dolce" E3 E | E2 D2 | E2 E2 | E2 D2 |"^poco cresc." F3 F | F2 E2 | E2 F2 |!>(! F2 E2!>)! | %8
w: Ruhn in|Frie- den|al- le|See- len,|ruhn in|Frie- den|al- le|See- len,|
!f! G3 G |!>(! G2 A!>)! z | z"^dolce" E2 E | D4 | E2 z2 | z4 | z4 | G3 G |!<(! G^F G=A!<)! | %17
w: al- le|See- len,|ruhn in|Frie-|den,|||die voll-|bracht ein ban- ges|
!>(! =A2 G!>)! z | z4 | B3 B |!<(! B=A Bc!<)! |!>(! c2 B!>)!!p!B | =A2 G2 | B2 =A2 | _A2 G>G | %25
w: Quä- len,||||||||
!<(! G2 G>G | G3!<)!!>(! G | =A3 A | B4!>)! |!pp! E>E E z | z E _G>F | F4 | B,>B, B, z | z B, E>E | %34
w: |||||||||
 D2 D>D |"^cresc." E2 =E>E | F2 _G2 | (F2 _A>)A |!f!!>(! A4 | A2!>)! z2 |!f! G3!>(! G | %41
w: |||||||
 G2 A!>)! z | z"^dolce" E2 E | D4 | E2 z2 | z4 | z4 | z4 | z4 | E3 E |!<(! FE FG!<)! | %51
w: ||||||||die voll-|bracht ein ban- ges|
!>(! B2 A!>)!A |!<(! AA AA!<)! |!>(! A2 G!>)! z |"^dolce" E3 E |!>(! F2 G2!>)! |!p! E2 D2 | %57
w: Quä- len, *||||||
 _D2 C>C |!<(! C2 E>E | E3!<)!!>(! E | D3 E | D4!>)! |!pp! E>E E z | z E _G>F | F4 | B,>B, B, z | %66
w: |||||||||
 z B, E>E | D2 D>D |"^cresc." E2 =E>E | F2 _G2 | (F2 _A>)A |!f!!>(! A4 | A2!>)! z2 |"^dolce" E3 E | %74
w: ||||||||
 E2 D2 | E2 E2 | E2 D2 | F3 F | F2 E2 | E2 F2 | F2 E2 | B,3 B, | E2 EE | (E2 D2) | E4 |!f! G3 G | %86
w: ||||||||||||
!>(! G2 A!>)! z | z"^dolce" E2 E | D4 | E2 z!<(! E | E4!<)! |!>(! B,2!>)! z!<(! E | E4!<)! | %93
w: |||||||
!>(! E2!>)! z!<(! A | A4!<)! |!>(! F2!>)! z!pp! D | !fermata!D4 | !fermata!B,4 |] %98
w: |||||
V:3
"^dolce" B3 B | B2 B2 | c2 c2 | c2 B2 |"^poco cresc." c3 c | c2 c2 | c2 d2 |!>(! d2 B2!>)! | %8
w: Ruhn in|Frie- den|al- le|See- len,|ruhn in|Frie- den|al- le|See- len,|
!f! e3 e |!>(! e2 e!>)! z | z"^dolce" e2 B | (B3 A) | G2 z2 | z4 | z4 | G3 G |!<(! cc Bc!<)! | %17
w: al- le|See- len,|ruhn in|Frie- *|den,|||die voll-|bracht ein ban- ges|
!>(! d2 B!>)! z | z4 | B3 B |!<(! ee ee!<)! |!>(! d2 d!>)!!p!B | c2 d2 | f2 e2 | d2 c>c | %25
w: Quä- len,||die voll-|bracht ein ban- ges|Quä- len, voll-|en- det|sü- ßen|Traum, die voll-|
!<(! c2 B>B | B3!<)!!>(! B | e3 f | d4!>)! |!pp! B>B B z | z e e>d | d4 | _G>G G z | z _G =A>A | %34
w: en- det, voll-|en- det|sü- ßen|Traum,|le- bens- satt,|ge- bo- ren|kaum,|le- bens- satt,|ge- bo- ren|
 B2 _c>c |"^cresc." B2 ^c>c | d2 e2 | (f2 e>)e |!f!!>(! f4 | f2!>)! z2 |!f! e3!>(! e | e2 e!>)! z | %42
w: kaum aus der|Welt, aus der|Welt hin-|ü- * ber|schie-|den.|Al- le|See- len,|
 z"^dolce" e2 B | (B3 A) | G2 z2 | c3 c |!<(! dc de!<)! |!>(! g2 f!>)! z |!<(! f3 f!<)! | %49
w: ruhn in|Frie- *|den,|die voll-|bracht ein ban- ges|Quä- len,|die voll-|
!>(! e3!>)! z | z4 | e3 e |!<(! ff ed!<)! |!>(! d2 e!>)! z |"^dolce" G3 G |!>(! =B2 c2!>)! | %56
w: bracht,||die voll-|bracht ein ban- ges|Quä- len,|die voll-|en- det|
!p! c2 =B2 | _B2 c>c |!<(! c2 c>c | c3!<)!!>(! c | d3 c | d4!>)! |!pp! B>B B z | z e e>d | d4 | %65
w: sü- ßen|Traum, die voll-|en- det, voll-|en- det|sü- ßen|Traum,|le- bens- satt,|ge- bo- ren|kaum,|
 _G>G G z | z _G =A>A | B2 _c>c |"^cresc." B2 ^c>c | d2 e2 | (f2 e>)e |!f!!>(! f4 | f2!>)! z2 | %73
w: le- bens- satt,|ge- bo- ren|kaum aus der|Welt, aus der|Welt hin-|ü- * ber|schie-|den.|
"^dolce" B3 B | B2 B2 | c2 c2 | c2 B2 | c3 c | c2 c2 | c2 d2 | d2 B2 | _d3 d | c2 cc | B4 | B4 | %85
w: Al- le|See- len|ruhn in|Frie- den,|al- le|See- len|ruhn in|Frie- den,|ruhn in|Frie- den, in|Frie-|den,|
!f! e3 e |!>(! e2 e!>)! z | z"^dolce" e2 B | (B2 A2) | G2 z!<(! G | G4!<)! |!>(! G2!>)! z!<(! c | %92
w: al- le|See- len|ruhn in|Frie- *|den, in|Frie-|den, in|
 c4!<)! |!>(! B2!>)! z!<(! e | e4!<)! |!>(! d2!>)! z!pp! B | !fermata!A4 | !fermata!G4 |] %98
w: Frie-|den, in|Frie-|den, in|Frie-|den.|
V:4
"^dolce" E,3 E, | E,2 B,,2 | A,,2 C,2 | G,,2 G,,2 |"^poco cresc." F,3 F, | F,2 C,2 | A,2 A,2 | %7
w: Ruhn in|Frie- den|al- le|See- len,|ruhn in|Frie- den|al- le|
!>(! G,2 G,2!>)! |!f! C3 B, |!>(! B,2 A,!>)! z | z"^dolce" C2 B, | (B,2 B,,2) | E,2 z2 | z4 | z4 | %15
w: See- len,|al- le|See- len,|ruhn in|Frie- *|den,|||
 E,3 E, |!<(! D,D, =E,^F,!<)! |!>(! G,2 G,!>)! z | z4 | _G,3 G, |!<(! F,F, G,=A,!<)! | %21
w: die voll-|bracht ein ban- ges|Quä- len,||||
!>(! ^F,2 G,!>)!!p!G, | =A,2 B,2 | F,2 F,2 | F,2 E,>E, |!<(! E,2 E,>E, | (D,2!<)! C,)!>(!C, | %27
w: ||||||
 F,3 F, | B,,4!>)! | z4 | z!pp! B, A,>B, | B,4 | B,,>B,, B,, z | z B,, B,,>B,, | B,,2 z2 | %35
w: ||||||||
 z2"^cresc." B,>B, | B,2 C2 | (D2 _C>)C |!f!!>(! B,4 | B,2!>)! z2 |!f! C3!>(! B, | B,2 A,!>)! z | %42
w: |||||||
 z"^dolce" C2 B, | (B,2 B,,2) | E,2 z2 | z4 | z4 | A,3 A, |!<(! G,G, =A,=B,!<)! |!>(! C2 C!>)! z | %50
w: |||||die voll-|bracht ein ban- ges|Quä- len,|
 z4 | _C3 C |!<(! B,B, B,B,!<)! |!>(! E,2 E,!>)! z |"^dolce" C,3 C, |!>(! D,2 E,2!>)! | %56
w: ||||||
!p! G,2 G,2 | G,2 A,>A, |!<(! A,2 A,>A, | (G,2!<)! F,)!>(!F, | B,2 =A,2 | B,4!>)! | z4 | %63
w: |||||||
 z!pp! B, A,>B, | B,4 | B,,>B,, B,, z | z B,, B,,>B,, | B,,2 z2 | z2"^cresc." B,>B, | B,2 C2 | %70
w: |||||||
 (D2 _C>)C |!f!!>(! B,4 | B,2!>)! z2 |"^dolce" E,3 E, | E,2 B,,2 | A,,2 C,2 | G,,2 G,,2 | F,3 F, | %78
w: ||||||||
 F,2 C,2 | A,2 A,2 | G,2 G,2 | G,3 G, | A,2 A,A, | (B,2 B,,2) | E,4 |!f! C3 B, |!>(! B,2 A,!>)! z | %87
w: |||||||||
 z"^dolce" C2 B, | (B,2 B,,2) | E,2 z!<(! C, | C,4!<)! |!>(! E,2!>)! z!<(! A, | A,4!<)! | %93
w: ||||||
!>(! E,2!>)! z!<(! A, | A,4!<)! |!>(! B,2!>)! z!pp! B,, | !fermata!E,4 | !fermata!E,4 |] %98
w: |||||

